webapp/src/assets/icons/cloudproviders/aws/networking_content_delivery/elb_application_load_balancer.svg

<svg width="48" height="48" xmlns="http://www.w3.org/2000/svg"><path d="M33.69 34.375h2.345V32H33.69v2.375Zm-6.939 0h2.375V32h-2.375v2.375Zm-7.875 0h2.375V32h-2.375v2.375Zm-6.91 0h2.285V32h-2.285v2.375Zm6.035-17.5h12V11h-12v5.875ZM37.035 30h-1.534v-3.375a1 1 0 0 0-1-1h-2.5V22.25a1 1 0 0 0-1-1h-6v-2.375h6a1 1 0 0 0 1-1V10a1 1 0 0 0-1-1h-14a1 1 0 0 0-1 1v7.875a1 1 0 0 0 1 1h6v2.375h-6a1 1 0 0 0-1 1v3.375h-2.5a1 1 0 0 0-1 1V30h-1.536a1 1 0 0 0-1 1v4.375a1 1 0 0 0 1 1h4.286a1 1 0 0 0 1-1V31a1 1 0 0 0-1-1h-.75v-2.375h4.125V30h-.75a1 1 0 0 0-1 1v4.375a1 1 0 0 0 1 1h4.375a1 1 0 0 0 1-1V31a1 1 0 0 0-1-1h-1.625v-3.375a1 1 0 0 0-1-1h-1.625V23.25h12v2.375h-1.625a1 1 0 0 0-1 1V30h-1.625a1 1 0 0 0-1 1v4.375a1 1 0 0 0 1 1h4.375a1 1 0 0 0 1-1V31a1 1 0 0 0-1-1h-.75v-2.375h4.125V30h-.811a1 1 0 0 0-1 1v4.375a1 1 0 0 0 1 1h4.345a1 1 0 0 0 1-1V31a1 1 0 0 0-1-1ZM24.001 44C12.972 44 4 35.028 4 24S12.972 4 24.001 4c11.028 0 20 8.972 20 20s-8.972 20-20 20Zm0-42C11.869 2 2 11.869 2 24s9.869 22 22.001 22c12.13 0 22-9.869 22-22s-9.87-22-22-22Z" fill="#8C4FFF" fill-rule="evenodd"/></svg>

<?xml version="1.0" encoding="UTF-8"?>
<svg width="48px" height="48px" viewBox="0 0 48 48" version="1.1" xmlns="http://www.w3.org/2000/svg" xmlns:xlink="http://www.w3.org/1999/xlink">
    <title>Icon-Resource/Networking-and-Content-Delivery/Res_Elastic-Load-Balancing_Application-Load-Balancer_48</title>
    <g id="Icon-Resource/Networking-and-Content-Delivery/Res_Elastic-Load-Balancing_Application-Load-Balancer_48" stroke="none" stroke-width="1" fill="none" fill-rule="evenodd">
        <path d="M33.69,34.375 L36.035,34.375 L36.035,32 L33.69,32 L33.69,34.375 Z M26.751,34.375 L29.126,34.375 L29.126,32 L26.751,32 L26.751,34.375 Z M18.876,34.375 L21.251,34.375 L21.251,32 L18.876,32 L18.876,34.375 Z M11.966,34.375 L14.251,34.375 L14.251,32 L11.966,32 L11.966,34.375 Z M18.001,16.875 L30.001,16.875 L30.001,11 L18.001,11 L18.001,16.875 Z M37.035,30 L35.501,30 L35.501,26.625 C35.501,26.072 35.053,25.625 34.501,25.625 L32.001,25.625 L32.001,22.25 C32.001,21.697 31.553,21.25 31.001,21.25 L25.001,21.25 L25.001,18.875 L31.001,18.875 C31.553,18.875 32.001,18.428 32.001,17.875 L32.001,10 C32.001,9.447 31.553,9 31.001,9 L17.001,9 C16.448,9 16.001,9.447 16.001,10 L16.001,17.875 C16.001,18.428 16.448,18.875 17.001,18.875 L23.001,18.875 L23.001,21.25 L17.001,21.25 C16.448,21.25 16.001,21.697 16.001,22.25 L16.001,25.625 L13.501,25.625 C12.948,25.625 12.501,26.072 12.501,26.625 L12.501,30 L10.965,30 C10.413,30 9.965,30.447 9.965,31 L9.965,35.375 C9.965,35.928 10.413,36.375 10.965,36.375 L15.251,36.375 C15.803,36.375 16.251,35.928 16.251,35.375 L16.251,31 C16.251,30.447 15.803,30 15.251,30 L14.501,30 L14.501,27.625 L18.626,27.625 L18.626,30 L17.876,30 C17.323,30 16.876,30.447 16.876,31 L16.876,35.375 C16.876,35.928 17.323,36.375 17.876,36.375 L22.251,36.375 C22.803,36.375 23.251,35.928 23.251,35.375 L23.251,31 C23.251,30.447 22.803,30 22.251,30 L20.626,30 L20.626,26.625 C20.626,26.072 20.178,25.625 19.626,25.625 L18.001,25.625 L18.001,23.25 L30.001,23.25 L30.001,25.625 L28.376,25.625 C27.823,25.625 27.376,26.072 27.376,26.625 L27.376,30 L25.751,30 C25.198,30 24.751,30.447 24.751,31 L24.751,35.375 C24.751,35.928 25.198,36.375 25.751,36.375 L30.126,36.375 C30.678,36.375 31.126,35.928 31.126,35.375 L31.126,31 C31.126,30.447 30.678,30 30.126,30 L29.376,30 L29.376,27.625 L33.501,27.625 L33.501,30 L32.69,30 C32.137,30 31.69,30.447 31.69,31 L31.69,35.375 C31.69,35.928 32.137,36.375 32.69,36.375 L37.035,36.375 C37.587,36.375 38.035,35.928 38.035,35.375 L38.035,31 C38.035,30.447 37.587,30 37.035,30 L37.035,30 Z M24.001,44 C12.972,44 4,35.028 4,24 C4,12.972 12.972,4 24.001,4 C35.029,4 44.001,12.972 44.001,24 C44.001,35.028 35.029,44 24.001,44 L24.001,44 Z M24.001,2 C11.869,2 2,11.869 2,24 C2,36.131 11.869,46 24.001,46 C36.131,46 46.001,36.131 46.001,24 C46.001,11.869 36.131,2 24.001,2 L24.001,2 Z" id="AWS-Elastic-Load-Balancing_-Application-Load-Balancer_Resource-Icon_light-bg" fill="#8C4FFF"></path>
    </g>
</svg>
